X:88
T: ICH GING IM WALDE SO FUER MICH HIN
N: B0116
O: Europa, Mitteleuropa, Deutschland
R: Ballade, Romanze
M: 3/4
L: 1/16
K: Bb
F2B2G2 | F3GF2E2D2F2 | B4z2
F2B2G2 | F3GF2E2D2F2 | B4z2
B2A2B2 | c3dc2B2A2G2 | F3GF2
F2B2c2 | d3ef2d2c2c2 | B6

